X:171
T:Be A Good Boy… JaW.171
M:6/8
L:1/8
Q:3/8=100
C:”..and take care of yourself.
S:James Winder Ms, Lancashire, 1835-41
R:.Air
O:England
A:Wyresdale,Lancashire
Z:vmp.Chris Partington, Aug 2004
K:D
A|Adf fed|dcB BAA|Adf fed|cde ecc|cde edc|!
def Hf2d|d<BB B<dd|AFA A2A|A<df e>de|edd d2|]

